images/logotypes/logo_1.svg

<svg width="230" height="70" viewBox="0 0 230 70" fill="none" xmlns="http://www.w3.org/2000/svg">
<rect x="0.00878906" width="229.983" height="70" rx="35" fill="white"/>
<path fill-rule="evenodd" clip-rule="evenodd" d="M59.5637 17.1774L59.5422 17.14H50.6011L40.0088 35.2983L47.2798 48.0205L47.2888 48.0051L50.0375 52.7661L71.0591 52.8601L78.4414 40.2019H78.3923L81.1194 35.4785L70.6901 17.2262L59.5637 17.1774ZM66.4802 29.2867H66.536L61.2801 20.1584L68.9602 20.1921L77.6904 35.4708L74.9578 40.2039L67.7967 40.2077L70.2935 35.8834L66.4802 29.2867ZM57.743 20.1134L61.3267 26.3132L56.3647 26.3131L47.8697 41.0452L47.2902 42.0462L43.4423 35.3134L52.309 20.1134H57.743ZM54.2973 35.8507L58.0824 29.2865L63.0457 29.2867L66.8595 35.8843L64.3622 40.2096L56.8161 40.2137L54.2973 35.8507ZM49.0044 45.0297L50.4444 42.5325L52.5858 38.8335L55.0997 43.1881L62.6447 43.1839L62.6325 43.2051L73.2405 43.2176L69.3555 49.8791L51.7586 49.8003L49.0044 45.0297Z" fill="#252525"/>
<path d="M135.273 28.0211C136.292 28.0211 137.119 27.1938 137.119 26.1544C137.119 25.115 136.292 24.309 135.273 24.309C134.234 24.309 133.407 25.115 133.407 26.1544C133.407 27.1938 134.234 28.0211 135.273 28.0211ZM133.619 40.2816H136.907V29.6756H133.619V40.2816Z" fill="#252525"/>
<path d="M138.821 45.3725H142.045V39.2209C142.66 40.0271 144.06 40.5785 145.524 40.5785C148.684 40.5785 150.594 38.1604 150.509 34.8088C150.424 31.3936 148.451 29.3361 145.503 29.3361C143.997 29.3361 142.575 29.9936 141.981 30.9694L141.812 29.6755H138.821V45.3725ZM142.109 34.9785C142.109 33.3876 143.169 32.3271 144.697 32.3271C146.245 32.3271 147.221 33.4088 147.221 34.9785C147.221 36.5482 146.245 37.6301 144.697 37.6301C143.169 37.6301 142.109 36.5694 142.109 34.9785Z" fill="#252525"/>
<path d="M150.857 36.9301C150.941 39.0725 152.639 40.5573 155.311 40.5573C157.878 40.5573 159.66 39.1997 159.66 37.0148C159.66 35.4452 158.727 34.4058 156.987 33.9815L155.099 33.5148C154.42 33.3452 153.996 33.1755 153.996 32.6239C153.996 32.0725 154.441 31.7118 155.099 31.7118C155.841 31.7118 156.329 32.1997 156.308 32.9209H159.257C159.172 30.7148 157.496 29.3361 155.162 29.3361C152.808 29.3361 151.048 30.7361 151.048 32.8573C151.048 34.2785 151.832 35.4452 153.932 35.9967L155.799 36.4846C156.35 36.6331 156.584 36.8876 156.584 37.2482C156.584 37.7785 156.096 38.1179 155.269 38.1179C154.315 38.1179 153.806 37.6725 153.806 36.9301H150.857Z" fill="#252525"/>
<path d="M164.66 40.5574C165.954 40.5574 167.248 39.9635 167.906 39.0939L168.118 40.2817H171.193V29.6757H167.927V35.1908C167.927 36.7817 167.46 37.6514 165.954 37.6514C164.787 37.6514 164.024 37.1211 164.024 35.1483V29.6757H160.757V36.3362C160.757 38.8605 162.157 40.5574 164.66 40.5574Z" fill="#252525"/>
<path d="M176.374 40.2815V34.4906C176.374 32.7088 177.328 32.1997 178.261 32.1997C179.301 32.1997 179.98 32.836 179.98 34.1513V40.2815H183.204V34.4906C183.204 32.6876 184.137 32.1785 185.07 32.1785C186.11 32.1785 186.81 32.8148 186.81 34.1513V40.2815H189.991V33.3452C189.991 30.9269 188.719 29.3148 185.983 29.3148C184.456 29.3148 183.204 30.0573 182.653 31.2027C182.016 30.0573 180.914 29.3148 179.153 29.3148C177.986 29.3148 176.904 29.8452 176.268 30.6936L176.14 29.6755H173.086V40.2815H176.374Z" fill="#252525"/>
<path d="M90.4715 24.5863H86.9927V40.2833H96.623V37.2075H90.4715V24.5863Z" fill="#252525"/>
<path d="M96.9556 34.9591C96.9556 38.3106 99.2041 40.5379 102.598 40.5379C105.971 40.5379 108.219 38.3106 108.219 34.9591C108.219 31.6076 105.971 29.359 102.598 29.359C99.2041 29.359 96.9556 31.6076 96.9556 34.9591ZM100.243 34.9379C100.243 33.3469 101.177 32.2863 102.598 32.2863C103.998 32.2863 104.931 33.3469 104.931 34.9379C104.931 36.55 103.998 37.6106 102.598 37.6106C101.177 37.6106 100.243 36.55 100.243 34.9379Z" fill="#252525"/>
<path d="M108.744 34.7892C108.744 37.9923 110.823 40.1559 113.772 40.1559C115.193 40.1559 116.423 39.6469 117.038 38.8195V40.2832C117.038 41.7469 116.126 42.7225 114.514 42.7225C113.072 42.7225 112.075 42.0438 112.011 40.8346H108.702C108.999 43.7408 111.248 45.6923 114.323 45.6923C117.951 45.6923 120.241 43.3377 120.241 39.6044V29.6771H117.293L117.123 30.759C116.529 29.8892 115.278 29.3165 113.835 29.3165C110.866 29.3165 108.744 31.5438 108.744 34.7892ZM112.054 34.7044C112.054 33.1771 113.072 32.159 114.366 32.159C115.872 32.159 116.975 33.1559 116.975 34.7044C116.975 36.2529 115.893 37.3134 114.387 37.3134C113.093 37.3134 112.054 36.2529 112.054 34.7044Z" fill="#252525"/>
<path d="M121.194 34.9591C121.194 38.3106 123.442 40.5379 126.836 40.5379C130.209 40.5379 132.458 38.3106 132.458 34.9591C132.458 31.6076 130.209 29.359 126.836 29.359C123.442 29.359 121.194 31.6076 121.194 34.9591ZM124.482 34.9379C124.482 33.3469 125.415 32.2863 126.836 32.2863C128.236 32.2863 129.17 33.3469 129.17 34.9379C129.17 36.55 128.236 37.6106 126.836 37.6106C125.415 37.6106 124.482 36.55 124.482 34.9379Z" fill="#252525"/>
</svg>

<svg width="230" height="70" fill="none" xmlns="http://www.w3.org/2000/svg"><rect x=".009" width="229.983" height="70" rx="35" fill="#fff"/><path fill-rule="evenodd" clip-rule="evenodd" d="m59.564 17.177-.022-.037h-8.94L40.008 35.298l7.27 12.722.01-.015 2.748 4.761 21.022.094 7.382-12.658h-.049l2.727-4.724L70.69 17.226l-11.126-.049Zm6.916 12.11h.056l-5.256-9.129 7.68.034 8.73 15.279-2.732 4.733-7.161.004 2.496-4.325-3.813-6.596Zm-8.737-9.174 3.584 6.2h-4.962L47.87 41.045l-.58 1.001-3.848-6.733 8.867-15.2h5.434Zm-3.446 15.738 3.785-6.564h4.964l3.813 6.597-2.497 4.326-7.546.004-2.519-4.363Zm-5.293 9.179 1.44-2.498 2.142-3.698 2.514 4.354 7.545-.004-.013.021 10.608.013-3.884 6.661-17.597-.079-2.755-4.77Z" fill="#252525"/><path d="M135.273 28.021a1.851 1.851 0 0 0 1.846-1.867 1.833 1.833 0 0 0-1.846-1.845c-1.039 0-1.866.806-1.866 1.845 0 1.04.827 1.867 1.866 1.867Zm-1.654 12.26h3.288V29.677h-3.288v10.606Zm5.202 5.092h3.224V39.22c.615.806 2.015 1.358 3.479 1.358 3.16 0 5.07-2.419 4.985-5.77-.085-3.415-2.058-5.473-5.006-5.473-1.506 0-2.928.658-3.522 1.633l-.169-1.294h-2.991v15.698Zm3.288-10.395c0-1.59 1.06-2.65 2.588-2.65 1.548 0 2.524 1.08 2.524 2.65 0 1.57-.976 2.652-2.524 2.652-1.528 0-2.588-1.06-2.588-2.652Zm8.748 1.952c.084 2.142 1.782 3.627 4.454 3.627 2.567 0 4.349-1.357 4.349-3.542 0-1.57-.933-2.61-2.673-3.034l-1.888-.466c-.679-.17-1.103-.34-1.103-.891 0-.552.445-.912 1.103-.912.742 0 1.23.488 1.209 1.209h2.949c-.085-2.206-1.761-3.585-4.095-3.585-2.354 0-4.114 1.4-4.114 3.521 0 1.422.784 2.588 2.884 3.14l1.867.488c.551.148.785.403.785.763 0 .53-.488.87-1.315.87-.954 0-1.463-.446-1.463-1.188h-2.949Zm13.803 3.627c1.294 0 2.588-.593 3.246-1.463l.212 1.188h3.075V29.676h-3.266v5.515c0 1.59-.467 2.46-1.973 2.46-1.167 0-1.93-.53-1.93-2.503v-5.472h-3.267v6.66c0 2.525 1.4 4.221 3.903 4.221Zm11.714-.275V34.49c0-1.782.954-2.291 1.887-2.291 1.04 0 1.719.636 1.719 1.951v6.13h3.224v-5.79c0-1.803.933-2.313 1.866-2.313 1.04 0 1.74.637 1.74 1.973v6.13h3.181v-6.936c0-2.418-1.272-4.03-4.008-4.03-1.527 0-2.779.742-3.33 1.888-.637-1.146-1.739-1.888-3.5-1.888-1.167 0-2.249.53-2.885 1.379l-.128-1.018h-3.054v10.606h3.288ZM90.472 24.586h-3.48v15.697h9.631v-3.075h-6.151V24.586Zm6.484 10.374c0 3.35 2.248 5.578 5.642 5.578 3.373 0 5.621-2.227 5.621-5.579 0-3.351-2.248-5.6-5.621-5.6-3.394 0-5.642 2.249-5.642 5.6Zm3.287-.022c0-1.591.934-2.652 2.355-2.652 1.4 0 2.333 1.06 2.333 2.652 0 1.612-.933 2.673-2.333 2.673-1.421 0-2.355-1.061-2.355-2.673Zm8.501-.148c0 3.202 2.079 5.366 5.028 5.366 1.421 0 2.651-.51 3.266-1.337v1.464c0 1.464-.912 2.44-2.524 2.44-1.442 0-2.439-.68-2.503-1.888h-3.309c.297 2.906 2.546 4.857 5.621 4.857 3.628 0 5.918-2.354 5.918-6.088v-9.927h-2.948l-.17 1.082c-.594-.87-1.845-1.442-3.288-1.442-2.969 0-5.091 2.227-5.091 5.472Zm3.31-.086c0-1.527 1.018-2.545 2.312-2.545 1.506 0 2.609.997 2.609 2.545 0 1.549-1.082 2.61-2.588 2.61-1.294 0-2.333-1.061-2.333-2.61Zm9.14.256c0 3.35 2.248 5.578 5.642 5.578 3.373 0 5.622-2.227 5.622-5.579 0-3.351-2.249-5.6-5.622-5.6-3.394 0-5.642 2.249-5.642 5.6Zm3.288-.022c0-1.591.933-2.652 2.354-2.652 1.4 0 2.334 1.06 2.334 2.652 0 1.612-.934 2.673-2.334 2.673-1.421 0-2.354-1.061-2.354-2.673Z" fill="#252525"/></svg>
